icons/blaze-fill.svg

<svg viewBox="0 0 24 24" fill="currentColor" xmlns="http://www.w3.org/2000/svg">
    <path d="M18.5 9C19.5 10.0606 20 11.3939 20 13C20 16.4664 16.3 17.276 14.5 22C13.8333 21.4254 13.5 20.5921 13.5 19.5C13.5 16.0181 18.5 14.2101 18.5 9ZM14.5 5C15.7 6.23841 16.3 7.57175 16.3 9C16.3 13.9513 10.2552 14.6918 11.5 22C9.83333 20.8392 9 19.1726 9 17C9 13.675 14.5 11 14.5 5ZM10 1C11.3333 2.66667 12 4.16667 12 5.5C12 11.75 3.5 13.7218 8 22C5.38352 21.4203 3.5 19 3.5 16C3.5 9.5 10 8.5 10 1Z"/>
</svg>

<svg xmlns="http://www.w3.org/2000/svg" viewBox="0 0 24 24">
    <g>
        <path fill="none" d="M0 0h24v24H0z"/>
        <path d="M18.5 9c1 1.06 1.5 2.394 1.5 4 0 3.466-3.7 4.276-5.5 9-.667-.575-1-1.408-1-2.5 0-3.482 5-5.29 5-10.5zm-4-4c1.2 1.238 1.8 2.572 1.8 4 0 4.951-6.045 5.692-4.8 13C9.833 20.84 9 19.173 9 17c0-3.325 5.5-6 5.5-12zM10 1c1.333 1.667 2 3.167 2 4.5 0 6.25-8.5 8.222-4 16.5-2.616-.58-4.5-3-4.5-6C3.5 9.5 10 8.5 10 1z"/>
    </g>
</svg>
